public/images/velease-logo-website-main.svg

<?xml version="1.0" encoding="UTF-8"?><svg id="Layer_1" xmlns="http://www.w3.org/2000/svg" viewBox="0 0 600 400"><defs><style>.cls-1{fill:#082342;}.cls-2{fill:#082341;}.cls-3{fill:#00b6df;}</style></defs><polygon class="cls-3" points="165.91 258.14 218.87 125.75 174.69 125.75 123.39 258.04 123.39 258.14 165.91 258.14"/><polygon class="cls-2" points="123.39 258.14 123.39 258.04 123.39 125.75 83.46 125.75 83.46 295.33 151.58 295.33 163.68 263.94 165.91 258.14 123.39 258.14"/><path class="cls-3" d="M293.55,125.53h11.56l7.5,56.55h.21l7.5-56.55h10.52l-11.04,72.9h-15.2l-11.04-72.9Z"/><path class="cls-3" d="M342.6,125.53h31.24v10.41h-19.79v19.27h15.72v10.41h-15.72v22.39h19.79v10.41h-31.24v-72.9Z"/><path class="cls-1" d="M296.57,222.17h11.46v62.48h18.85v10.41h-30.3v-72.9Z"/><path class="cls-1" d="M338.64,222.17h31.24v10.41h-19.79v19.27h15.72v10.41h-15.72v22.39h19.79v10.41h-31.24v-72.9Z"/><path class="cls-1" d="M391.54,222.17h15.52l11.87,72.9h-11.46l-2.08-14.47v.21h-13.02l-2.08,14.27h-10.62l11.87-72.9ZM404.04,270.91l-5.1-36.03h-.21l-5,36.03h10.31Z"/><path class="cls-1" d="M432.67,291.37c-2.85-3.16-4.27-7.69-4.27-13.59v-4.17h10.83v5c0,4.72,1.98,7.08,5.94,7.08,1.94,0,3.42-.57,4.43-1.72,1.01-1.15,1.51-3,1.51-5.57,0-3.05-.7-5.74-2.08-8.07-1.39-2.33-3.96-5.12-7.71-8.38-4.72-4.17-8.02-7.93-9.89-11.3-1.87-3.37-2.81-7.17-2.81-11.4,0-5.76,1.46-10.22,4.37-13.38,2.92-3.16,7.15-4.74,12.71-4.74s9.63,1.58,12.44,4.74c2.81,3.16,4.22,7.69,4.22,13.59v3.02h-10.83v-3.75c0-2.5-.49-4.32-1.46-5.47-.97-1.15-2.39-1.72-4.27-1.72-3.82,0-5.73,2.33-5.73,6.98,0,2.64.71,5.1,2.13,7.39,1.42,2.29,4.01,5.07,7.76,8.33,4.79,4.17,8.09,7.95,9.89,11.35,1.8,3.4,2.71,7.39,2.71,11.98,0,5.97-1.48,10.55-4.43,13.75-2.95,3.19-7.24,4.79-12.86,4.79s-9.75-1.58-12.6-4.74Z"/><path class="cls-1" d="M475.26,222.17h31.24v10.41h-19.79v19.27h15.72v10.41h-15.72v22.39h19.79v10.41h-31.24v-72.9Z"/><rect class="cls-1" x="255.38" y="98.26" width=".75" height="221.43"/></svg>

<svg width="600" height="400" viewBox="0 0 600 400" fill="none" xmlns="http://www.w3.org/2000/svg">
<path d="M165.91 258.14L218.87 125.75H174.69L123.39 258.04V258.14H165.91Z" fill="#00B6DF"/>
<path d="M123.39 258.14V258.04V125.75H83.46V295.33H151.58L163.68 263.94L165.91 258.14H123.39Z" fill="#082341"/>
<path d="M293.55 125.53H305.11L312.61 182.08H312.82L320.32 125.53H330.84L319.8 198.43H304.6L293.56 125.53H293.55Z" fill="#00B6DF"/>
<path d="M342.6 125.53H373.84V135.94H354.05V155.21H369.77V165.62H354.05V188.01H373.84V198.42H342.6V125.52V125.53Z" fill="#00B6DF"/>
<path d="M296.57 222.17H308.03V284.65H326.88V295.06H296.58V222.16L296.57 222.17Z" fill="#082342"/>
<path d="M338.64 222.17H369.88V232.58H350.09V251.85H365.81V262.26H350.09V284.65H369.88V295.06H338.64V222.16V222.17Z" fill="#082342"/>
<path d="M391.54 222.17H407.06L418.93 295.07H407.47L405.39 280.6V280.81H392.37L390.29 295.08H379.67L391.54 222.18V222.17ZM404.04 270.91L398.94 234.88H398.73L393.73 270.91H404.04Z" fill="#082342"/>
<path d="M432.67 291.37C429.82 288.21 428.4 283.68 428.4 277.78V273.61H439.23V278.61C439.23 283.33 441.21 285.69 445.17 285.69C447.11 285.69 448.59 285.12 449.6 283.97C450.61 282.82 451.11 280.97 451.11 278.4C451.11 275.35 450.41 272.66 449.03 270.33C447.64 268 445.07 265.21 441.32 261.95C436.6 257.78 433.3 254.02 431.43 250.65C429.56 247.28 428.62 243.48 428.62 239.25C428.62 233.49 430.08 229.03 432.99 225.87C435.91 222.71 440.14 221.13 445.7 221.13C451.26 221.13 455.33 222.71 458.14 225.87C460.95 229.03 462.36 233.56 462.36 239.46V242.48H451.53V238.73C451.53 236.23 451.04 234.41 450.07 233.26C449.1 232.11 447.68 231.54 445.8 231.54C441.98 231.54 440.07 233.87 440.07 238.52C440.07 241.16 440.78 243.62 442.2 245.91C443.62 248.2 446.21 250.98 449.96 254.24C454.75 258.41 458.05 262.19 459.85 265.59C461.65 268.99 462.56 272.98 462.56 277.57C462.56 283.54 461.08 288.12 458.13 291.32C455.18 294.51 450.89 296.11 445.27 296.11C439.65 296.11 435.52 294.53 432.67 291.37Z" fill="#082342"/>
<path d="M475.26 222.17H506.5V232.58H486.71V251.85H502.43V262.26H486.71V284.65H506.5V295.06H475.26V222.16V222.17Z" fill="#082342"/>
<path d="M258.135 99.825H254.285V321.255H258.135V99.825Z" fill="#082342"/>
</svg>
